X:1
T:Title
%%score { ( 1 3 ) | ( 2 4 ) }
L:1/8
M:6/8
K:F
V:1 treble nm="Grand Piano"
V:3 treble 
V:2 bass 
V:4 bass 
V:1
 z3 z2[Q:1/4=100] c | c>=Bc c>Bc | A3 C2 F | A>AA [^Fc]>[FB][FA] |[M:5/8] B- B3 z |[M:1/8] d | %6
[M:3/4] d>^c dd- d/c/d | B3 D2 D | G>G GG- G/F/D |[M:5/8] C- C3 z |[M:1/8] c | %11
[M:3/4] [Af]>c cc- c/B/A | c2- [A,Fc][Ec] z [Cc] | [Af]>[Ac] [Ac][Ac]- [Ac]/[GB]/[FA] | %14
[M:5/8] [Ec]- [Ec]3 z |[M:1/8] [EB] |[M:3/4] A>A AA- A/B/c |[M:7/8] d3 [DG]3 [Fd] | %18
[M:3/4] [Fc]>[Fc] [Fc][Ec]- [Ec]/[EB]/[EG] |[M:5/8] F-F- F3 |] %20
V:2
 z3 z2 [F,A,F] | [F,A,F]>[F,_A,F][F,=A,F] [F,A,F]>[F,_A,F][F,=A,F] | [F,CF]3 [F,A,]2 [F,A,C] | %3
 [F,CF]>[F,CF][F,CF] [D,D]>[D,D][D,D] |[M:5/8][K:treble] [G,DG]- [G,DG]3 z |[M:1/8] [G,B,G] | %6
[M:3/4] [G,B,G]>[G,B,G] [G,B,G][G,B,G]- [G,B,G]/[G,B,G]/[G,B,G] | [G,DG]3[K:bass] [G,B,]2 [G,B,] | %8
 [G,=B,D]>[G,B,D] [G,B,D][G,B,D]- [G,B,D]/[G,B,D]/[G,B,] |[M:5/8] C,- C,3 z |[M:1/8] C | %11
[M:3/4] [F,C]>[F,A,F] [F,A,F][F,A,F]- [F,A,F]/[F,G,F]/[F,F] | G,2 z [C,G,] z2 | %13
 [F,C]>[F,C] [F,C][F,C]- [F,C]/[F,C]/[F,C] |[M:5/8] [C,C]- [C,C]3 z |[M:1/8] [C,C] | %16
[M:3/4][K:treble] [F,CF]>[F,CF] [F,CF][F,CF]- [F,CF]/[G,CF]/[A,CF] | %17
[M:7/8] [B,F]3[K:bass] [B,,B,]3 [=B,,_A,] | %18
[M:3/4] [C,A,]>[C,A,] [C,A,][C,G,]- [C,G,]/[C,G,]/[C,B,] |[M:5/8] [F,A,]-[F,A,]- [F,A,]3 |] %20
V:3
 x6 | x6 | x6 | x6 |[M:5/8] x5 |[M:1/8] x |[M:3/4] x6 | x6 | x6 |[M:5/8] x5 |[M:1/8] x | %11
[M:3/4] x6 | E2 z2 z2 | x6 |[M:5/8] x5 |[M:1/8] x |[M:3/4] x6 |[M:7/8] x7 |[M:3/4] x6 | %19
[M:5/8] x5 |] %20
V:4
 x6 | x6 | x6 | x6 |[M:5/8][K:treble] x5 |[M:1/8] x |[M:3/4] x6 | x3[K:bass] x3 | x6 |[M:5/8] x5 | %10
[M:1/8] x |[M:3/4] x6 | C,4 z2 | x6 |[M:5/8] x5 |[M:1/8] x |[M:3/4][K:treble] x6 | %17
[M:7/8] x3[K:bass] x4 |[M:3/4] x6 |[M:5/8] x5 |] %20

